**kern
*clefF4
*k[]
*M4/4
=1
1C 1E 1G
=2||
2GG
4FF#X
4GG
=3
2C
4BB
4C
=4
2E
4D#X
4E
=5
2G
4A-X
4G
=6
*^
1F 1F 1B	2D
.	2D-X
=7	=7
2c	1C 1E 1G
2c#X	.
=8	=8
*	*^
2d	2G	1GG 1BB
2d#X	2F	.
*v	*v	*v
=9
1C 1C 1E 1e
==
*-
!!!system-decoration: [(s1
